symbols-de/shields/motorway_7x3.svg

<?xml version="1.0" encoding="UTF-8" standalone="no"?>
<svg
   xmlns:dc="http://purl.org/dc/elements/1.1/"
   xmlns:cc="http://creativecommons.org/ns#"
   xmlns:rdf="http://www.w3.org/1999/02/22-rdf-syntax-ns#"
   xmlns:svg="http://www.w3.org/2000/svg"
   xmlns="http://www.w3.org/2000/svg"
   xmlns:sodipodi="http://sodipodi.sourceforge.net/DTD/sodipodi-0.dtd"
   xmlns:inkscape="http://www.inkscape.org/namespaces/inkscape"
   width="100%"
   height="100%"
   viewBox="0 0 51.0 33.0"
   id="svg2"
   version="1.1"
   inkscape:version="0.91 r13725"
   sodipodi:docname="autobahn_7x3.svg">
  <metadata
     id="metadata9">
    <rdf:RDF>
      <cc:Work
         rdf:about="">
        <dc:format>image/svg+xml</dc:format>
        <dc:type
           rdf:resource="http://purl.org/dc/dcmitype/StillImage" />
        <dc:title></dc:title>
      </cc:Work>
    </rdf:RDF>
  </metadata>
  <defs
     id="defs7" />
  <sodipodi:namedview
     pagecolor="#ffffff"
     bordercolor="#666666"
     borderopacity="1"
     objecttolerance="10"
     gridtolerance="10"
     guidetolerance="10"
     inkscape:pageopacity="0"
     inkscape:pageshadow="2"
     inkscape:window-width="1195"
     inkscape:window-height="786"
     id="namedview5"
     showgrid="false"
     showguides="false"
     inkscape:zoom="6.9215686"
     inkscape:cx="25.5"
     inkscape:cy="16.5"
     inkscape:window-x="444"
     inkscape:window-y="17"
     inkscape:window-maximized="0"
     inkscape:current-layer="svg2" />
  <path
     style="fill:#365eaf;fill-opacity:1;stroke:#0528a2;stroke-width:1;stroke-miterlimit:4;stroke-dasharray:none;stroke-opacity:1"
     d="m 25.5,0.499998 c -0.358421,0 -0.53711,0.0033 -0.53711,0.01172 L 1.307543,2.281249 C 0.769908,2.366099 0.5,2.494361 0.5,2.664061 l 0,27.671876 c 0,0.1697 0.269908,0.297962 0.807543,0.382812 L 24.96289,32.48828 c 0,0.0085 0.178693,0.01172 0.53711,0.01172 0.358423,0 0.53711,-0.0032 0.53711,-0.01172 l 23.655347,-1.769532 c 0.537637,-0.08485 0.689677,-0.224567 0.807543,-0.382812 0,-14.860404 0,-14.542796 0,-27.671876 0,-0.1697 -0.269906,-0.297965 -0.807543,-0.382812 L 26.03711,0.511716 c 0,-0.0085 -0.178693,-0.01172 -0.53711,-0.01172 z"
     id="path6"
     inkscape:connector-curvature="0"
     sodipodi:nodetypes="sccccccsccccccs" />
</svg>

<?xml version="1.0" encoding="UTF-8"?>
<svg xmlns="http://www.w3.org/2000/svg" xmlns:xlink="http://www.w3.org/1999/xlink" width="53pt" height="42pt" viewBox="0 0 53 42" version="1.1">
<g id="surface1">
<path style="fill-rule:nonzero;fill:rgb(21.176471%,36.862745%,68.627451%);fill-opacity:1;stroke-width:1;stroke-linecap:butt;stroke-linejoin:miter;stroke:rgb(1.960784%,15.686275%,63.529412%);stroke-opacity:1;stroke-miterlimit:4;" d="M 25.5 0.500279 C 25.14291 0.500279 24.962485 0.503348 24.962485 0.512556 L 1.308078 2.280413 C 0.770563 2.36635 0.499926 2.495257 0.499926 2.664062 L 0.499926 30.335938 C 0.499926 30.504743 0.770563 30.63365 1.308078 30.719587 L 24.962485 32.487444 C 24.962485 32.496652 25.14291 32.499721 25.5 32.499721 C 25.85709 32.499721 26.037515 32.496652 26.037515 32.487444 L 49.691922 30.719587 C 50.229437 30.63365 50.38355 30.495536 50.500074 30.335938 C 50.500074 15.474888 50.500074 15.794085 50.500074 2.664062 C 50.500074 2.495257 50.229437 2.36635 49.691922 2.280413 L 26.037515 0.512556 C 26.037515 0.503348 25.85709 0.500279 25.5 0.500279 Z M 25.5 0.500279 " transform="matrix(1.039216,0,0,1.272727,0,0)"/>
</g>
</svg>
